X:1
T: Miss Rachel Gibson
C:
R:Reel
Q: 232
K:A
M:4/4
L:1/8
|:e|cA AA cA ec|dB fg ae fd|cA AA cA ec|df Bd cA Ae|
cA AA cA ec|dB fg ae fd|cA AA cA ec|df Bd cA Ag|
ag af ec Ac|Bb ba gb eg|ag af ec Ac|df Bd cA Ag|
ag af ec Ac|Bb ba gb eg|ae fb af ec|df Bd cA A:|
